X:2
T:Off We Go
C:copyright 1997 Kaubells
E:18                   % note spacing
M:6/8
K:EMix
|:"E"bba gab|e/f/ec B3|b2a gga|b3e3|*
"D"d2d a2f|"E"e/f/ec B2c|"G"d2B =G2A|B6:|*
E:16                   % note spacing
K:Am
|:"Am"A2A .a2A|"Dm"de=f def|{df}"Am"e2c {d}cBA|"E7"^GAB E2E|*
"Am"A3 .a2A|"Dm"de=f def|"Am"e3 c'3|"E7"db^g "Am"a3:|*
